dist/icons/svgs/copy-outline.svg

<svg xmlns="http://www.w3.org/2000/svg" width="24" height="24" fill="currentcolor" class="icon-copy-outline" viewBox="0 0 24 24">
  <path d="M18.25 15.125C18.5625 15.125 18.875 14.8516 18.875 14.5V6.53125L16.2188 3.875H10.75C10.3984 3.875 10.125 4.1875 10.125 4.5V14.5C10.125 14.8516 10.3984 15.125 10.75 15.125H18.25ZM10.75 17C9.34375 17 8.25 15.9062 8.25 14.5V4.5C8.25 3.13281 9.34375 2 10.75 2H16.2188C16.6875 2 17.1953 2.23438 17.5469 2.58594L20.1641 5.20312C20.5156 5.55469 20.75 6.0625 20.75 6.53125V14.5C20.75 15.9062 19.6172 17 18.25 17H10.75ZM5.75 7H7V8.875H5.75C5.39844 8.875 5.125 9.1875 5.125 9.5V19.5C5.125 19.8516 5.39844 20.125 5.75 20.125H13.25C13.5625 20.125 13.875 19.8516 13.875 19.5V18.25H15.75V19.5C15.75 20.9062 14.6172 22 13.25 22H5.75C4.34375 22 3.25 20.9062 3.25 19.5V9.5C3.25 8.13281 4.34375 7 5.75 7Z"/>
</svg>

<svg xmlns="http://www.w3.org/2000/svg" width="24" height="24" fill="currentColor" class="icon-copy-outline" viewBox="0 0 24 24">
  <path d="M18.25 15.125a.64.64 0 0 0 .625-.625V6.531l-2.656-2.656H10.75a.64.64 0 0 0-.625.625v10c0 .352.273.625.625.625zM10.75 17a2.47 2.47 0 0 1-2.5-2.5v-10c0-1.367 1.094-2.5 2.5-2.5h5.469c.468 0 .976.234 1.328.586l2.617 2.617c.352.352.586.86.586 1.328V14.5c0 1.406-1.133 2.5-2.5 2.5zm-5-10H7v1.875H5.75a.64.64 0 0 0-.625.625v10c0 .352.273.625.625.625h7.5a.64.64 0 0 0 .625-.625v-1.25h1.875v1.25c0 1.406-1.133 2.5-2.5 2.5h-7.5a2.47 2.47 0 0 1-2.5-2.5v-10c0-1.367 1.094-2.5 2.5-2.5"/>
</svg>
